release/img/cash_icon.svg

<svg width="58" height="58" viewBox="0 0 58 58" fill="none" xmlns="http://www.w3.org/2000/svg">
<path d="M8 9.87751V22.1229C8 22.7667 8.22437 22.9992 8.85291 22.9992C10.6171 23.0003 12.38 23.0003 14.1431 22.9992C14.7563 22.9979 14.9983 22.7667 14.9983 22.1674C15.0006 18.0575 15.0006 13.9465 14.9983 9.83546C14.9983 9.23383 14.7576 9.00135 14.1454 9.00135H14.1443C12.3805 9.00019 10.6178 8.99903 8.85522 9.00135C8.22778 9.00251 8 9.23731 8 9.87751Z" fill="#1FAD96"/>
<path d="M17.6847 10.416C18.0986 10.3192 18.5122 10.2205 18.9258 10.1213L18.9283 10.1206C20.3846 9.77174 21.8407 9.42292 23.3141 9.16456C25.8473 8.7209 28.2504 9.16004 30.3907 10.6562C31.2283 11.2413 32.0646 11.8298 33 12.4851H23.2207C20.8396 12.4851 19.2936 14.1838 19.5529 16.5537H19.9675C22.1091 16.5537 24.2495 16.5504 26.391 16.5549C27.9277 16.5583 29.1604 17.733 29.1742 19.1986C29.1892 20.7469 28.0118 21.9647 26.4452 21.9748C26.1611 21.9767 25.877 21.9791 25.5928 21.9816L25.1804 21.9854C23.3744 22.0022 21.5673 22.0191 19.7648 21.9465C19.1315 21.9216 18.5042 21.7486 17.8768 21.5755C17.5901 21.4964 17.3033 21.4173 17.0161 21.3524V18.3091L17.0085 14.4414V14.4393L17.0011 10.5736C17.2291 10.5219 17.457 10.4692 17.6847 10.416Z" fill="#1FAD96"/>
<path d="M23.7395 23.9306H21.0022L21.001 23.933L21.0005 25.5604C21 26.6358 20.9995 27.7039 21.001 28.7716C21.0033 30.1134 21.8682 31 23.1763 31H44.811C46.1477 31 47 30.1205 47 28.7421V16.3045C47 14.8598 46.1683 14.0015 44.7711 14.0015H23.2219L23.1732 14.0013L23.1251 14.0008C23.0878 14.0004 23.0503 13.9999 23.0128 14.0001C22.9688 14.0002 22.9246 14.0012 22.8804 14.0039C22.092 14.05 21.2729 14.738 21.2056 15.4178L22.9158 15.4173C24.0559 15.4168 25.1962 15.4162 26.3363 15.4178C27.4319 15.419 28.4121 15.763 29.213 16.548C29.4438 16.7738 29.6666 16.8376 29.9647 16.8376C33.7269 16.8305 37.4901 16.8328 41.2523 16.8328C41.9446 16.8328 42.1445 17.0161 42.2142 17.7077C42.2782 18.3437 42.798 18.8828 43.4127 18.9537C44.0902 19.0317 44.2638 19.2315 44.2638 19.9443L44.264 21.2613C44.2642 22.5337 44.2646 23.8058 44.2638 25.0785C44.2627 25.7582 44.0719 25.9782 43.4309 26.0432C42.806 26.107 42.2863 26.6319 42.2153 27.2691C42.1343 27.9961 41.9503 28.1652 41.2283 28.1652H31.7367C30.0402 28.1652 28.3447 28.1687 26.6482 28.1639C26.0792 28.1628 25.8394 27.9287 25.7902 27.3613C25.7262 26.6058 25.2373 26.1094 24.4912 26.0408C23.9885 25.9935 23.751 25.7393 23.7406 25.2156C23.7352 24.9282 23.7367 24.6401 23.7382 24.3478V24.345L23.7385 24.2884C23.739 24.1699 23.7395 24.0508 23.7395 23.9306Z" fill="#1FAD96"/>
<path d="M41 46.3499V35.7136C39.949 35.2805 38.8733 34.9993 37.7332 35.0004L33.2677 35.0001C32.2523 34.9999 31.2371 35.0002 30.2219 35.0016C28.7188 35.0039 27.5088 36.1524 27.5177 37.5549C27.528 39.1638 28.7379 40.4326 30.2693 40.4348C31.2271 40.4354 32.1852 40.4351 33.1433 40.4349L34.2928 40.4346C34.921 40.4345 35.5491 40.4345 36.177 40.4348C36.7307 40.4348 37.0048 40.6605 37.0081 41.1072C37.0115 41.555 36.7352 41.7875 36.186 41.7875C34.2172 41.7897 32.2472 41.7931 30.2782 41.7863C29.3062 41.7829 28.4255 41.487 27.6744 40.8588C26.5187 39.8917 26.0496 38.6377 26.1962 37.1218C25.3402 36.8814 24.4934 36.6388 23.6443 36.4064C23.243 36.2969 22.8424 36.1851 22.4418 36.0734L22.4374 36.0721C21.37 35.7743 20.3027 35.4766 19.225 35.2238C18.0579 34.9494 16.9504 35.4562 16.3777 36.403C15.613 37.6683 16.0393 39.2897 17.3857 40.1593C17.7714 40.4086 18.1572 40.6576 18.5432 40.9063C18.8053 41.0751 19.0675 41.2439 19.3297 41.4125C19.8923 41.7744 20.4553 42.1359 21.0182 42.4974C23.0707 43.8154 25.1229 45.1333 27.1637 46.4701C29.2228 47.8182 31.4747 48.2581 33.8439 47.8579C35.5143 47.5767 37.1699 47.2041 38.8293 46.8306L38.8345 46.8295C39.5551 46.6674 40.2764 46.505 41 46.3499Z" fill="#1FAD96"/>
<path d="M43.0017 40.9584V34.9243C43.0017 34.2178 43.2096 34.0018 43.8978 34.0018C44.4352 34.001 44.9724 34.0006 45.5096 34.0003C46.7069 33.9996 47.9039 34.0001 49.1016 34.0018C49.7756 34.0018 50 34.2225 50 34.8788V47.1221C50 47.7667 49.7745 47.9992 49.1471 47.9992C48.3186 47.9997 47.4904 48 46.6622 48C45.7268 48.0001 44.7914 47.9998 43.8557 47.9992C43.2272 47.9992 43.0017 47.7679 43.0005 47.1245C42.9998 45.7542 43 44.3839 43.0002 43.0139L43.0005 40.9596L43.0017 40.9584Z" fill="#1FAD96"/>
<path d="M33.9856 20C32.3263 20.0021 31 21.1134 31 22.5C31.0012 23.8836 32.3337 24.9979 33.9894 25C35.6512 25.0021 36.995 23.894 37 22.5167C37.005 21.1091 35.6737 19.9979 33.9856 20Z" fill="#1FAD96"/>
</svg>

<svg xmlns="http://www.w3.org/2000/svg" width="58" height="58" fill="none" viewBox="0 0 58 58">
  <path fill="#1FAD96" d="M8 9.878v12.245c0 .644.224.876.853.876h5.29c.613-.001.855-.232.855-.832.003-4.11.003-8.22 0-12.332 0-.601-.24-.834-.853-.834-1.764 0-3.527-.002-5.29 0-.627.002-.855.236-.855.877Zm9.685.538c.414-.097.827-.196 1.24-.295h.003c1.457-.35 2.913-.698 4.386-.956 2.533-.444 4.936-.005 7.077 1.491.837.585 1.674 1.174 2.609 1.83h-9.78c-2.38 0-3.926 1.698-3.667 4.068h.415c2.141 0 4.282-.004 6.423 0 1.537.004 2.77 1.179 2.783 2.645.015 1.548-1.162 2.766-2.729 2.776l-.852.007-.413.003c-1.806.017-3.613.034-5.415-.038-.634-.025-1.26-.198-1.888-.371a19 19 0 0 0-.86-.224V18.31l-.008-3.868v-.002L17 10.574l.684-.158Z"/>
  <path fill="#1FAD96" d="M23.74 23.93h-2.738l-.001.003v1.627c-.001 1.076-.002 2.144 0 3.212.002 1.341.867 2.228 2.175 2.228h21.635C46.148 31 47 30.12 47 28.742V16.304c0-1.444-.832-2.302-2.229-2.302H23.173L23.125 14h-.112c-.044 0-.088 0-.133.003-.788.046-1.607.734-1.674 1.414h1.71c1.14-.001 2.28-.002 3.42 0 1.096.001 2.076.345 2.877 1.13.23.226.454.29.752.29 3.762-.008 7.525-.005 11.287-.005.693 0 .892.183.962.875.064.636.584 1.175 1.199 1.246.677.078.85.277.85.99l.001 1.317v3.817c-.001.68-.192.9-.833.965-.625.064-1.145.589-1.216 1.226-.08.727-.265.896-.987.896h-9.491c-1.697 0-3.392.004-5.089-.001-.569-.001-.809-.235-.858-.803-.064-.755-.553-1.252-1.299-1.32-.503-.047-.74-.302-.75-.825-.006-.288-.004-.576-.003-.868v-.059l.002-.357ZM41 46.35V35.714c-1.051-.433-2.127-.715-3.267-.714h-4.465c-1.016 0-2.03 0-3.046.002-1.503.002-2.713 1.15-2.704 2.553.01 1.609 1.22 2.878 2.751 2.88h5.908c.554 0 .828.225.831.672.003.448-.273.68-.822.68-1.969.003-3.939.006-5.908 0-.972-.004-1.852-.3-2.604-.928-1.155-.967-1.624-2.221-1.478-3.737-.856-.24-1.703-.483-2.552-.716-.401-.11-.802-.22-1.202-.333h-.005a79.762 79.762 0 0 0-3.212-.85 2.589 2.589 0 0 0-2.847 1.18c-.765 1.265-.339 2.887 1.008 3.756a948.71 948.71 0 0 0 1.944 1.254l1.688 1.084a806.225 806.225 0 0 1 6.146 3.973c2.059 1.348 4.31 1.788 6.68 1.388 1.67-.281 3.326-.654 4.985-1.027l.005-.002c.721-.162 1.442-.324 2.166-.48Zm2.002-5.392v-6.034c0-.706.208-.922.896-.922a1732.58 1732.58 0 0 1 5.204 0c.674 0 .898.22.898.877v12.243c0 .645-.225.877-.853.877a4117.281 4117.281 0 0 1-5.291 0c-.629 0-.854-.231-.855-.875-.001-1.37-.001-2.74 0-4.11v-2.056Z"/>
  <path fill="#1FAD96" d="M33.986 20c-1.66.002-2.986 1.113-2.986 2.5.001 1.384 1.334 2.498 2.99 2.5 1.661.002 3.005-1.106 3.01-2.483.005-1.408-1.326-2.52-3.014-2.517Z"/>
</svg>
